X: 20870
T: Jolly Pigeons, The
R: reel
M: 4/4
K: Edorian
|:GF|EFGA BE~E2|B2BA BcdB|AF~F2 DF~F2|AFdF AFFD|
EFGA BE~E2|B2BA Bcde|fedB AFdA|BAFE D2:|
|:DA|BeeB e2de|fedA Bcde|f2de faaf|gfed BAA2|
BeeB e2de|fedA Bcde|fedB AFdA|BAFE D2:|

